!!!COM: John Williams
!!!OTL: Ewok Parade Basic
!!!GAW: Star Wars: Episode VI: Return of the Jedi
!!!ODT: 1983
!!!OCL: Frank Lehman
!!!ENC: Claire Arthur
!!!ENC2: John McNamara
**kern	**harte	**harm	**altharm	**cadence
*clefG2	*	*	*	*
*k[b-e-]	*k[b-e-]	*k[b-e-]	*	*
*B-:	*B-:	*B-:	*	*
*M4/4	*M4/4	*M4/4	*	*
*MM112	*MM112	*MM112	*	*
16fKL	.	.	.	.
8r	.	.	.	.
16enJk	.	.	.	.
=1	=1	=1	=1	=1
8en	Bb:min(A4)	I	?Im3M3A4P5	.
8r	.	.	.	.
16fKL	.	.	.	.
8r	.	.	.	.
16eJk	.	.	.	.
8e	.	.	.	.
8r	.	.	.	.
16b-KL	.	.	.	.
8r	.	.	.	.
16b-Jk	.	.	.	.
=2	=2	=2	=2	=2
8dd-L	.	.	?Im3M3A4P5	.
8ff-	.	.	.	.
8b-	.	.	.	.
8dd-J	.	.	.	.
8en	.	.	.	.
8r	.	.	.	.
16fKL	.	.	.	.
8r	.	.	.	.
16eJk	.	.	.	.
=3	=3	=3	=3	=3
8en	.	.	?Im3M3A4P5	.
8r	.	.	.	.
16dd-KL	.	.	.	.
8r	.	.	.	.
16b-Jk	.	.	.	.
8b-	.	.	.	.
8r	.	.	.	.
16ffKL	.	.	.	.
8r	.	.	.	.
16eenJk	.	.	.	.
=4	=4	=4	=4	=4
8een	C:7/4	VM7M9	?IIA3P5m7	.
4.cc	.	.	.	.
4ryy	.	.	.	.
16fKL	.	.	.	HC
8r	.	.	.	.
16enJk	.	.	.	//
=5	=5	=5	=5	=5
8en	Bb:min(A4)	I	?Im3M3A4P5	.
8r	.	.	.	.
16fKL	.	.	.	.
8r	.	.	.	.
16eJk	.	.	.	.
8e	.	.	.	.
8r	.	.	.	.
16b-KL	.	.	.	.
8r	.	.	.	.
16b-Jk	.	.	.	.
=6	=6	=6	=6	=6
8dd-L	.	?Im3M3A4P5	.	.
8ff-	.	.	.	.
8b-	.	.	.	.
8dd-J	.	.	.	.
8en	.	.	.	.
8r	.	.	.	.
16fKL	.	.	.	.
8r	.	.	.	.
16eJk	.	.	.	.
=7	=7	=7	=7	=7
8en	.	.	?Im3M3A4P5	.
8r	.	.	.	.
16dd-KL	.	.	.	.
8r	.	.	.	.
16b-Jk	.	.	.	.
8a	Gb:min	-vi	.	.
8r	.	.	.	.
16gg-KL	.	.	.	.
8r	.	.	.	.
16ffJk	.	.	.	.
=8	=8	=8	=8	=8
8ff	Bb	I	.	CC
4.b-	.	.	.	||
2r	.	.	.	.
=	=	=	=	=
*-	*-	*-	*-	*-
